X: 19731
T: Jenny Picking Cockles
R: reel
M: 4/4
K: Dmixolydian
|:AD (3DDD FGAB|CAGE CDEG|AD (3DDD FGAB|~c3 e dcAG|
AD (3DDD FGAB|CAGE CDEG|AD (3DDD FGAB|cAGE D3 G:|
|:Ad~d2 Adfd|ec~c2 Gcec|Ad~d2 Adfd|ed^cd edd^c|
Ad~d2 Adfd|ec~c2 efge|a3 g ed^cd|eaag eddB:|

